packages/icons/svgs/solid/hide-solid.svg

<svg width="12" height="12" viewBox="0 0 12 12" fill="none" xmlns="http://www.w3.org/2000/svg">
<path fill-rule="evenodd" clip-rule="evenodd" d="M8.7 2.25L10.725 0.225C11.025 -0.075 11.475 -0.075 11.775 0.225C12.075 0.525 12.075 0.975 11.775 1.275L1.275 11.775C1.125 11.925 0.975 12 0.75 12C0.525 12 0.375 11.925 0.225 11.775C-0.075 11.475 -0.075 11.025 0.225 10.725L2.1 8.85C1.35 8.175 0.675 7.425 0.3 6.825C-0.075 6.375 -0.075 5.7 0.3 5.175C1.2 3.825 3.3 1.5 6 1.5C6.975 1.5 7.875 1.8 8.7 2.25ZM3.75 6C3.75 6.375 3.825 6.675 3.975 6.975L6.975 3.975C6.675 3.825 6.375 3.75 6 3.75C4.725 3.75 3.75 4.725 3.75 6ZM4.80002 10.35L10.95 4.2C11.0816 4.36442 11.2131 4.51442 11.332 4.65C11.4843 4.82365 11.6158 4.97365 11.7 5.1C12.075 5.625 12.075 6.3 11.7 6.825C10.8 8.175 8.70002 10.5 6.00002 10.5C5.62502 10.5 5.17502 10.425 4.80002 10.35Z" fill="black"/>
</svg>

<svg width="12" height="12" viewBox="0 0 12 12" xmlns="http://www.w3.org/2000/svg"><path fill-rule="evenodd" clip-rule="evenodd" d="M8.7 2.25 10.725.225c.3-.3.75-.3 1.05 0 .3.3.3.75 0 1.05l-10.5 10.5A.68.68 0 0 1 .75 12a.68.68 0 0 1-.525-.225c-.3-.3-.3-.75 0-1.05L2.1 8.85C1.35 8.175.675 7.425.3 6.825c-.375-.45-.375-1.125 0-1.65C1.2 3.825 3.3 1.5 6 1.5c.975 0 1.875.3 2.7.75ZM3.75 6c0 .375.075.675.225.975l3-3c-.3-.15-.6-.225-.975-.225-1.275 0-2.25.975-2.25 2.25Zm1.05 4.35 6.15-6.15c.132.164.263.314.382.45.152.174.284.324.368.45.375.525.375 1.2 0 1.725-.9 1.35-3 3.675-5.7 3.675-.375 0-.825-.075-1.2-.15Z"/></svg>
